X:11
T: Esik eső, szép csendesen csepereg
M:4/8
L:1/16
Q: 1/4=50
K:B
G>A B A G A B<E | D D3 B4 |
A>B c B A G d>B | A A3 A2 z2 |
d>f e/d/ c B A G | ^F G3 A4 | 
A3 B c d3 | G3/2 d ^c B2A | G G3 G2 z2 |

